X: 21482
T: the Hilloch of Hay
%R: air, march
B: James Oswald "The Caledonian Pocket Companion" v.2 p.148 #2
Z: 2018 John Chambers <jc:trillian.mit.edu>
M: C
L: 1/8
K: D
%%slurgraces yes
%%graceslurs yes
"_Slow"F>G |\
A3B (AF)(ED) | {DE}F2A>B A3B | d3e (d/e/f) (Ted) | Tc2(BA) d3A |\
d3e {de}f2(Ted) | c2(BA) d2(cB) | A3B A(FTE)D | {DE}F2B>c B2 :|
|: f>g |\
a3b afTed | (Ted)(ef) a3g | f2b>c' b3a | (fe)(fa) b3a |\
g2(g/a/b) a2gf | (gf)(ed) B2dB | A3B A(FTE)D | {DE}F2B>c B2 :|

